X:1
T:Polska spelad av Einar Viklund
R:senpolska
C:Sven Viklund, 75
M:3/4
L:1/16
Q:1/4=70
K:D
P:A
| A-|
|: "D"A3F D2F2 "G"G2B2|"D"A2BA "A"G2AG "D"F2A2|d4 (A2c2) d2f2|"A"e2fe d2ed c2A2\
|  "D"A3F D2F2 "G"G2B2|"D"A2BA G2AG F2A2|d4 (A2c2) d2f2|("A"ef)ec "D"d6:|
P:B
|: "D"f4 ([D2A2]f2) [D2A2]f2|f2ef g2eg f2d2|"A"e4 ([E2A2]e2) [E2A2]e2|e2de f2df e2d2\
|  "D"f4 ([D2A2]f2) [D2A2]f2|f2ef g2eg f2d2|"A"e2f2 g2eg f2df|(e2c2) "D"[D8d8] :||
